img/logo-sm.svg

<svg width="46" height="46" viewBox="0 0 46 46" fill="none" xmlns="http://www.w3.org/2000/svg">
<path d="M37.8591 21.6513L44.7956 21.6357L24.3811 1.22118L24.4616 8.25384L37.8591 21.6513Z" fill="#F7D247" stroke="#F7D247"/>
<path d="M8.14093 24.0261L1.20439 24.0418L21.6189 44.4563L21.5384 37.4236L8.14093 24.0261Z" fill="#D33854" stroke="#D33854"/>
<path d="M8.14093 21.6513L1.20439 21.6357L21.6189 1.22118L21.5384 8.25384L8.14093 21.6513Z" fill="#DA7736" stroke="#DA7736"/>
<path d="M37.8591 24.0261L44.7956 24.0418L24.3811 44.4563L24.4616 37.4236L37.8591 24.0261Z" fill="#56A461" stroke="#56A461"/>
</svg>

<svg width="46" height="46" fill="none" xmlns="http://www.w3.org/2000/svg"><path d="M37.86 21.651l6.936-.015L24.38 1.22l.08 7.033L37.86 21.65z" fill="#F7D247" stroke="#F7D247"/><path d="M8.14 24.026l-6.936.016L21.62 44.456l-.08-7.032L8.14 24.026z" fill="#D33854" stroke="#D33854"/><path d="M8.14 21.651l-6.936-.015L21.62 1.22l-.08 7.033L8.14 21.65z" fill="#DA7736" stroke="#DA7736"/><path d="M37.86 24.026l6.936.016L24.38 44.456l.08-7.032L37.86 24.026z" fill="#56A461" stroke="#56A461"/></svg>
